X:1
T:Peter Gray
R:reel
C:J. Scott Skinner
B: The Scottish Violinist
H:learned from a recording of her grandfather, Donald Angus Beaton
D:Andrea Beaton, Cuts (called "Traditional Reel")
Z:Paul Stewart Cranford (P.S.C.), <http://www.cranfordpub.com>
L:1/8
M:C|
Q:333
K:G
D|G2 DC B,DGF|EGAG FAdc|BGFG EGDB,|CEDF GG,G,:|
||A|Bdgf edcB|ceag fedc|Bdgf edcB|Ad^ce d2 d=c|
Bdgf edcB|ceag fedc|BGFG DB,A,g|dBcA BGG|]
